F[ERK3
CUT[WAS KANN SCHOENER SEIN]
REG[Europa, Mitteleuropa, Schweiz, Emmenthal]
KEY[E1480  16  G 3/4]
MEL[  1_2_34321__  3_4_56543__
    5_5_4_4_3_3_  2_.43__0__
    1_2_34321__  3_4_56543__
    5_5_4_4_3_3_  2_.43__0__
    5_.43__.5_  4_3_2__2__
    5_.43__.5_  4_3_2__2__
    1_.234321__  3_.456543__
    5_5_4_4_3_3_  2_.43__0__ //] >>
FCT[Staende -, Hirten -, Alpen - Lied, Kuhreihen]
